X:1
T:Paysages d'amour
T:Dans les boutons d'or
T:Paysages d'amour
T:Augusta Holmès
T:(Holmès)
T:1. Dans les boutons d'or
T:En Sol ♮ (G major)
T:OpenScore (CC0 1.0)
T:OpenScore (CC0 1.0)
T:OpenScore (CC0 1.0)
T:OpenScore (CC0 1.0)
T:OpenScore (CC0 1.0)
T:OpenScore (CC0 1.0)
C:Augusta Holmès
Z:Augusta Holmès
Z:OpenScore (CC0 1.0)
%%score 1 { ( 2 3 ) | ( 4 5 6 ) }
L:1/8
Q:1/2=60
M:4/4
K:G
V:1 treble nm="Chant\nVoice"
V:2 treble nm="Piano"
V:3 treble 
V:4 treble 
V:5 treble 
V:6 treble 
V:1
"^Allegretto" z8 | z8 | z8 | z8 | z8 | z8 | z8 | z8 |!p! G2 d2 A2 d2 | g2 d2 B2 A G | %10
w: ||||||||Dans les Bou- tons|d'Or Et l'her- be qui|
 (E2 FG A2 GA | B2 AG A4-) | A4- A2 z2 | G2 d2 A2 d2 | g2 d2 B2 A G | (E2 FG A4 || %16
w: pli- * * * * *|* * * e,|_ _|Je te vois en-|cor, Mi- gnon- ne jo-|lie- * * *|
[M:2/4] G2-) G z ||[M:4/4] z4 z2!p! G2 |!<(! d4 e2 c2 | f2!<)!!mf! d2!>(! g2 d B!>)! | %20
w: e! _|Mê-|lant aux fleurs|d'or, Aux her- bes pro-|
 (G2 AB E2 FG | A2 FE) D4- | D4- D2 z2 |!<(! G2 d2 A2 d2!<)! |!>(! g8- | %25
w: fon- * * * * *|* * * des, |_ _|Le roy- al tré-|sor |
 g4-!>)! g z!p!"^Rall. un poco" d B |[Q:1/2=55] (G2 A) B (D2 G2 |[Q:1/2=50] E2 FG A4-) || %28
w: _ _ De tes|tres- * ses blon- *||
[M:2/4] A4 ||[M:4/4][Q:1/4=120]"^a Tempo" G4- G2 z z | z8 | z8 | z8 | z8 | z8 | z8 | z8 | %37
w: |\- des!  _||||||||
!p! G2 d2 A2 d2 | g2 d2 B2 A G | (E2 FG A2 GA | B2 AG A4- | A4- A2) z2 |!p! G2 d2 A2 d2 | %43
w: Vers les bleus jar-|dins Où sif- flent les|mer- * * * * *|* * * les,|_ _|Où des flots loin-|
 g2 d2 B2 A G | (E2 FG A4 ||[M:2/4] G4-) ||[M:4/4] G2 z2 z2!p! G2 | d2 z2!<(! e2 c2 | %48
w: tains Dé- fer- lent en|per- * * *|\- les, |_ Mu-|ets, et cher-|
 f2!<)! e d!mf! (g2!>(! d) B | (G2!>)!!p! AB c2 A2 | F2 GA B4-) | B4- B2 z2 | z8 | %53
w: chant A cla- mer  _ nos|â- * * * *|* * * mes, |_ _||
"^poco rall." E2 B2[Q:1/2=56] F2 B2 | e8- |[Q:1/2=53] e2 z2 z2!p! B2 | d8- | %57
w: Sous le ciel chan-|\- geant |_ Long-|temps |
 d4- d z!pp!"^rall."[Q:1/2=50] (BA) | G2 A B (D2 G2 |[Q:1/2=48] E2 FG A4-) | A8 | %61
w: _ _ Long- *|temps nous er- râ- *|||
[Q:1/4=120]"^a Tempo" G4- G2 z2 | z8 | z8 | z8 |!p! B2 B2 B2 B2 | (B4 (3B2) z2 G2 | %67
w: mes.  _||||Et des prés en|fleurs,  _ Des|
!f! (e4 (3:2:4e) z E2 ^c2 | (=c8 | D4) z2!p! D2 |"^cresc." B4 B3 B | (c4 (3:2:4c) z A2 F2 | %72
w: bois,  _ de la|bri-|se, Mon-|tait vers nos|cœurs  _ Le dé-|
 d4- d2 G2 | e4 e2 z2 |!f! f2 f2!<(! ^d2!<)! B2 | g4- g2!f! G2 |!f! f4- f2 F ^G | (E8 | %78
w: \- sir  _ qui|gri- se...|Tout ce Pa- ra-|dis  _ Cla-|\- ma  _ son po-|ê-|
 D4-) D2 z2 | z8 |!ff!"^plus large"[Q:1/2=55] G2 d2 A2 d2 | g2 d2 B2 A G |!>(! (E2 FG A4!>)! | %83
w: me!  _||Tout ce Pa- ra-|dis Cla- ma son po-|ê- * * *|
[Q:1/4=120]"^a Tempo" B8-) | B2 z2 z2 z!p! G | d2 z2 e2 c2 | f2 z2 z4 | z4 z2!pp! B A | %88
w: me!|* A-|lors, je te|dis...|Je te|
 G2 A B D2 z2 | z4 z2!p! D2 | (E8 | F8 | G4-) G2 z2 | !fermata!z8 |] %94
w: dis En trem- blant:|« Je|t'ai-||me! »  _||
V:2
!pp! z2!<(! z2!8va(!{b'g'e''} d''!8va)! z z2 | z2 z2{bge'} d' z!<)! z2 | %2
 z2 z2!8va(!{_b'g'=f''} _e''!8va)! z z2 | z2 z2!8va(!{_b'g'f''} _e''!8va)! z z2 | %4
!8va(! z2 z2{b'g'e''} d'' z z2 |{b'g'e''} d'' z z2{b'g'f''} d'' z z2 | z2 z2{c''f'e''} d'' z z2 | %7
{c''f'e''} d'' z z2{c''f'e''} d''!8va)! z z2 |!pp!!8va(! [gbd']4 [fc'd']4 | [gbg']4 [gbe'g']4 | %10
 [ac'e'a']4 [fc'd'f']4 | [gbd'g']4 [fc'd'f']4- | [fc'd'f']2 z2!pp!{c''f'e''} d'' z z2 | %13
!pp! [gbd']4 [fc'd']4 | [gbg']4 [gbe'g']4 | [ac'e'a']4 [fc'd'f']4 || %16
[M:2/4] [gbd'g']2- [gbd'g']!8va)! z ||[M:4/4] z4!8va(!{b'g'e''} d''!8va)! z z2 | %18
!<(! ([B=fgb]4 [cegc']4 | [dfc'd']4 [gbg']4)!<)! |!mp!!8va(! ([be'g'b']4!8va)! [^cg^c']4 | %21
 [=cdf=c']8) |!8va(! z4!pp!{c''f'e''} d''!8va)! z z2 |!<(!!8va(! [gbd']4 [fc'd']4!<)! | %24
!mf! ([g_b_e']8 | [g=bg']8-) | [gbg']2!8va)! z2 z4 |"_poco rall."!pp! [ac']8- ||[M:2/4] [ac']4 || %29
[M:4/4]!p!(({dg)} b4 g2 b2 | c'4-) c'2 z2 |(({B=f)} d'4 b2 d'2) | %32
!mp!!<(! (3g2 a2 b2 (3c'2 d'2 e'2!<)! | f'4 ^d'2 f'2 | %34
!mf!!<(! (3b2 ^c'2 ^d'2 (3e'2 f'2!f! g'2!<)! |!p! z2 z2!8va(!{b'g'e''} d''!8va)! z z2 | %36
 z2 z2!8va(!{c''f'e''} d''!8va)! z z2 |!pp! (GBdg !arpeggio![Fcf]edc | Bdgb agbd' | e'c'ae dfad' | %40
 gbd'g' [fc'f']2) z2 |!8va(! z4{c''f'e''} d''!8va)! z z2 |!pp! (GBdg !arpeggio![Fcf]edc | %43
 Bdgb agbd' | e'c'ge dfad' ||[M:2/4] [gb]2) z2 ||[M:4/4] z4!pp!!8va(!{bge'} d''!8va)! z z2 | %47
!p!!<(! ([B,=F]4 [CE]4) |[I:staff +1] (D2 C2!<)!!mf! [G,B,]2-) [G,B,][I:staff -1] z | %49
!pp! ([EGBe]4 [EFc]4 | [EFA]4 [^DFB]4) |!pp!!>(!{^dB^g} f z z2{^d'b^g'} f' z z2 | %52
"^<sym>ottava</sym>"{^d'b^g'} ^f'!>)! z z2 z4 |"_poco rall." ([e^gb]4 [^dab]4 | [e^ge']8-) | %55
 [e^ge']8 | [=gb=g']8- | [=gb=g']4- [gbg'] z z2 | z8 |"_rall."!pp! [ac']8- | [ac']8 | %61
"^a Tempo"!p!"_accentuez le chant"{d-g-} ([Bdgb]4 [Gg]2 [Bb]2) | %62
 (3[Ece]2"_cresc." [Ff]2 [Gg]2 (3[Aa]2 [Bb]2 [cc']2 | ([d=fd']4 [Bb]2 [dd']2) | %64
 (3[Geg]2 [Aa]2 [Bb]2 (3[cc']2 [dd']2 [ee']2 |!p! ([faf']4 [^d^d']2 [ff']2) | %66
"_cresc." (3[Bgb]2 [^c^c']2 [^d^d']2!8va(! (3[ee']2 [ff']2 [g^g']2 | %67
!mf!({^c'g')} ^c''2 b'2- (3b'2 ^c'2 g'2!8va)! |"_dim." (3f'2 c'2 e'2 (3f2 c'2 e2 | %69
 (3f2 c2 e2 (3F2 c2 D2 |!p! ([Bdgb]4 [Gg]2 [Bb]2) | %71
 (3[Ece]2"_cresc." [Ff]2 [Gg]2 (3[Aa]2 [Bb]2 [cc']2 | ([d=fd']4 [Bgb]2 [dd']2) | %73
 (3[Geg]2 [Aa]2 [Bb]2 (3[cc']2 [dd']2 [ee']2 | ([^fa^f']4 [^d^d']2 [ff']2) | %75
 (3[Bgb]2 [^c^c']2 [^d^d']2 (3[ee']2 [ff']2 [gg']2 | %76
!f!!8va(! !^![fb^d'f']4!8va)! !^![^dd']2 !^![Ff]2 | !^![^Ge^g]4 !^![^Ae^a]4 | %78
"_cresc." !^![=B^f=b]2 !^![cfc']4 !^![dfc'd']2- | [dfc'd']2 !^![ec'e']4 !^![fc'f']2 | %80
!ff!"_plus large" [gbg']2 z2 [Fcd]2 z2 | !^![GBdg]2 z2 [GBeg]2 z2 |!>(! [Acea]2 z2 [Fcdf]2 z2 | %83
"^a Tempo" [GBdg]2-!>)! [GBdg] z!p!{bge'} d' z z2 |!pp!!8va(!{bge'} d''!8va)! z z2 z4 | %85
!p! [B=f]2 z2 [ce]2 z2 | (f2 ed g2) z2 | z8 | [GB]2 z2 [GBd]2 z2 | z8 |!pp! (C8- | C8 | %92
 B,4-) B,2 z2 |!pp! [gb]4- [gb]2 !fermata!z2 |] %94
V:3
 [gbd']8 | [gbd']8 | [g_b_e']8 | [_eg_b]8 |!8va(! [gbd']8- | [gbd']8 | [gc'd']8- | [gc'd']8!8va)! | %8
!8va(! x8 | x8 | x8 | x8 | x8 | x8 | x8 | x8 ||[M:2/4] x3!8va)! x ||[M:4/4] x4!8va(! x!8va)! x3 | %18
 x8 | x8 |!8va(! x4!8va)! x4 | x8 |!8va(! x5!8va)! x3 |!8va(! x8 | x8 | x8 | x2!8va)! x6 | %27
 [eg]4 [df]4- ||[M:2/4] [df]4 ||[M:4/4] x8 | (3!arpeggio!e2 f2 g2 (3a2 b2 c'2 | =f4- f2 z2 | %32
 !arpeggio!e4- e2 z2 |{^da-} a4 a2 z2 | !arpeggio!g4- g2 z2 | [dgbd']8 | [dfc'd']8 | x8 | x8 | x8 | %40
 x8 |!8va(! x5!8va)! x3 | x8 | x8 | x8 ||[M:2/4] x4 ||[M:4/4] x4!8va(! x!8va)! x3 | x8 | x8 | x8 | %50
 x8 | x8 | x8 | x8 | x8 | x8 | x8 | x8 | x8 | [eg]4 [df]4- | [df]8 | x8 | x8 | x8 | x8 | x8 | %66
 x4!8va(! x4 | x8!8va)! | x8 | x8 | x8 | x8 | x8 | x8 | x8 | x8 |!8va(! x4!8va)! x4 | x8 | x8 | %79
 x8 | x8 | x8 | x8 | x8 |!8va(! x!8va)! x7 | x8 | (([Fc]4 [GB]2)) x2 | x8 | x8 | x8 | x8 | x8 | %92
 x8 | x8 |] %94
V:4
!ped! [GBd]8!ped-up! |!ped! [GBd]8!ped-up! |!ped! [_EG_B_e]8!ped-up! |!ped! [_B,_EG_B]8!ped-up! | %4
!ped! [DGBd]8- | [DGBd]8!ped-up! |!ped! [DFAcd]8- | [DFAcd]8!ped-up! | [GBd]4 [Fcd]4 | %9
 [GBd]4 [GBe]4 | [EAc]4 [DFAd]4 | [DGBd]4 [DFAd]4 | %12
[K:bass]!ped! [G,,D,]2- [G,,D,]!ped-up! z[K:treble]!ped! [DFAcd]2- [DFAcd] z!ped-up! | %13
 [GBd]4 [Acd]4 | [GBd]4 [GBe]4 | [EGc]4 [DFAd]4 ||[M:2/4] [GBd]2- [GBd] z || %17
[M:4/4][K:bass]!pp!!ped! [G,,D,]2- [G,,D,]!ped-up! z[K:treble]!ped! [DGBd]2- [DGBd] z!ped-up! | %18
[K:bass] (D4 C4 | A,4 G,4 | E,4)[K:treble]!>(! [A,EA]4 | [DFA]8!>)! | %22
[K:bass]!ped! [G,,D,]2- [G,,D,]!ped-up! z[K:treble]!ped! [D-F-A-cd-]2 [DFAcd]!ped-up! z | %23
 [GBd]4 [Acd]4 | ([_EG_B_e]8 | [DG=Bd]8-) | [DGBd]2 z2 z4 | %27
[K:bass] z4"^M.G."[I:staff -1] [DFAc]4- ||[M:2/4] [DFAc]2- [DFAc][I:staff +1] z || %29
[M:4/4]!ped! z2 (G,/B,/[I:staff -1]D/G/) B2!ped-up![I:staff +1] z2 | %30
!ped! [D,,D,]2 z2[K:treble] !arpeggio![DFAc]2!ped-up! z2 | %31
[K:bass]!ped! z2!f! (G,/B,/[I:staff -1]D/=F/ G2)!ped-up![I:staff +1] z2 | %32
!ped! [C,,C,]2 z2!ped-up!!ped! !arpeggio![G,CEG]2 z2!ped-up! | %33
!ped! z2!f! (B,/[I:staff -1]^D/F/A/) B2!ped-up![I:staff +1] x2 | %34
!ped! [E,,E,]2 z2!ped-up![K:treble]!ped! !arpeggio![B,EGB]2 z2!ped-up! |!ped! [DGB]8!ped-up! | %36
!ped! [DFAc]8!ped-up! |[K:bass]!ped! [G,,D,]2- [G,,D,] z!ped-up! ([A,D]4 | %38
 [G,D]4[K:treble] [DGB]4 | [Gc]4 A4 | [GB]4 [Ac]2) z2 | %41
[K:bass]!pp!!ped! [G,,D,]2- [G,,D,]!ped-up! z[K:treble]!ped! [D-F-Ac-d-]2 [DFAcd]!ped-up! z | %42
[K:bass]!ped! [G,,D,]2- [G,,D,] z!ped-up! ([A,D]4 | [G,D]4[K:treble] [DGB]4 | [Gc]4 [FA]4 || %45
[M:2/4] [GB]2) z2 || %46
[M:4/4][K:bass]!ped! [G,,D,]2- [G,,D,]!ped-up! z[K:treble]!ped! [DGBd]2- [DGBd]!ped-up! z | %47
[K:bass] G,8 | F,4 x3 z | ([E,,E,]4 [A,,A,]4 | [C,C]4 [B,,B,]4) | %51
!ped! [F,B,^DF]2- [F,B,DF]!ped-up! z[K:treble]!ped! [FB^df]2- [FBdf]!ped-up! z | %52
!ped!!8va(! [fb^d'f']4- [fbd'f']2!ped-up!!8va)! z2 | [^GB]4 [FAB]4 | [E^GB]8- | [E^GB]8 | %56
 [D=GB]8- | [D=GB]4- [DGB] z z2 | z8 |[K:bass]!ped! [D,,D,]8- | [D,,D,]4- [D,,D,]2 z2!ped-up! | %61
!ped! !^!D,2 !^!B,4 !^!G,2!ped-up! |({D,,D,)} !^!C8!ped!!ped-up! | %63
!ped! !^!B,4{/G,} !^!=F4!ped-up! |!ped!({C,,C,)} !^!E8!ped-up! | %65
!ped!({B,,,B,,)} !^!^D4({F,B,)} !^!A4!ped-up! |!ped!({E,,E,)} !^!G8!ped-up! | %67
!ped! z2 !///-![A,^C] G !///-![A,C]2 G2!ped-up! |!ped! z2 !///-![A,D] F !///-![A,D]2 F2 | %69
 !///-![A,D]2 F2 [A,D]2!ped-up! z2 | !^!D,2 !^!B,4 !^!G,2 |!ped!({D,,D,)} !^!C8!ped-up! | %72
!ped! !^!B,4{/G,} !^!=F4!ped-up! |!ped! !^!E8!ped-up! | %74
!ped!({B,,,B,,)} !^!^D4!ped-up!!ped!({F,B,)} !^!A4!ped-up! |!ped! !^!G8!ped-up! | %76
!ped! [F,,F,]8!ped-up! |!ped! z2 !///-![F,^C] E !///-![F,C]2!ped-up! E2 | %78
!ped! z2 !///-![=A,=D] ^F !///-![A,D]2 F2 | !///-![A,D]4 F4!ped-up! | %80
!ped! !^!G,2 !^!D2!ped-up!!ped! !^!A,2 !^!D2!ped-up! | %81
!ped! z2 !^!D2!ped-up!!ped! !^!B,2 (A,G,!ped-up! | E,2 F,G,!ped! !arpeggio![A,,D,A,]4!ped-up! | %83
!ped! !arpeggio![G,,D,B,]2-) [G,,D,B,]!ped-up! z[K:treble]!ped! [DGB]2- [DGB]!ped-up! z | %84
!ped! [dgb]2- [dgb] z!ped-up! z4 |[K:bass]"_una corda" [DG]2 z2 [CG]2 z2 | %86
!ped! ([A,D]4 [G,D]2) z2!ped-up! | z8 | [E,E]2 z2 [D,D]2 z2 | z8 |"_una corda" [D,,D,]8- | %91
 [D,,D,]8 |!ped! [G,,D,]4- [G,,D,]2!ped-up! z2 | %93
[K:treble]!ped! [GBd]4- [GBd]2!ped-up! !fermata!z2 |] %94
V:5
 x8 | x8 | x8 | x8 | x8 | x8 | x8 | x8 | x8 | x8 | x8 | x8 |[K:bass] x4[K:treble] x4 | x8 | x8 | %15
 x8 ||[M:2/4] x4 ||[M:4/4][K:bass] x4[K:treble] x4 |[K:bass] x8 | x8 | x4[K:treble] x4 | x8 | %22
[K:bass] x4[K:treble] x4 | z8 | x8 | x8 | x8 |[K:bass] [D,,D,]8- ||[M:2/4] [D,,D,]2- [D,,D,] x || %29
[M:4/4] [G,,D,]4- [G,,D,]2 z2 | x4[K:treble] x4 |[K:bass] [G,,,G,,]4- [G,,,G,,]2 z2 | x8 | %33
 [B,,,B,,]4- [B,,,B,,]2 z2 | x4[K:treble] x4 | x8 | x8 |[K:bass] x8 | x4[K:treble] x4 | %39
 (C2 E2 F4) | (G2 D2-) D2 x2 |[K:bass] x4[K:treble] x4 |[K:bass] x8 | x4[K:treble] x4 | %44
 ((C2 E2 F2 D2)) ||[M:2/4] x4 ||[M:4/4][K:bass] x4[K:treble] x4 |[K:bass] (D,4 C,4 | %48
 [A,,D,]4 [G,,D,]2-) [G,,D,] x | x8 | x8 | x4[K:treble] x4 |!8va(! x6!8va)! x2 | x8 | x8 | x8 | %56
 x8 | x8 | x8 |[K:bass] z4[I:staff -1] [DFAc]4- | [DFAc]4- [DFAc]2[I:staff +1] z2 | %61
 !arpeggio!G,,4- G,,2 z2 | z2 !///-!D,, D, !///-!D,,2 D,2 |{G,,-D,-} [G,,D,]4- [G,,D,]2 z2 | %64
 z2 !///-![G,C] E !///-![G,C]2 E2 | x8 | z2 !///-![B,E] G !///-![B,E]2 G2 | %67
 [A,,,A,,]4- [A,,,A,,]2 z2 | [D,,D,]8- | [D,,D,]4- [D,,D,]2 x2 | G,,4- G,,2 z2 | %71
 z2 !///-!D,, D, !///-!D,,2 D,2 |({G,,-D,-)} [G,,D,]4- [G,,D,]2 z2 | %73
 z2 !///-![G,C] E !///-![G,C]2 E2 | x8 |({E,,-E,-)} [E,,E,]4- [E,,E,]2 z2 | %76
 z2 !///-![F,B,] ^D !///-![F,B,]2 D2 | [F,,,F,,]8 | [D,,D,]8- | [D,,D,]4- [D,,D,]2 z2 | %80
 [G,,B,,D,]2 z2 D,2 z2 | [G,,B,,D,G,]2 z2 [E,G,]2 z2 | C,2 x2 x4 | x4[K:treble] x4 | x8 | %85
[K:bass] x8 | x8 | x8 | x8 | x8 | x8 | x8 | x8 |[K:treble] x8 |] %94
V:6
 x8 | x8 | x8 | x8 | x8 | x8 | x8 | x8 | x8 | x8 | x8 | x8 |[K:bass] x4[K:treble] x4 | x8 | x8 | %15
 x8 ||[M:2/4] x4 ||[M:4/4][K:bass] x4[K:treble] x4 |[K:bass] x8 | x8 | x4[K:treble] x4 | x8 | %22
[K:bass] x4[K:treble] x4 | x8 | x8 | x8 | x8 |[K:bass] x8 ||[M:2/4] x4 ||[M:4/4] x8 | %30
 x4[K:treble] x4 |[K:bass] x8 | x8 | x8 | x4[K:treble] x4 | x8 | x8 |[K:bass] x8 | %38
 x4[K:treble] x4 | x8 | x8 |[K:bass] x4[K:treble] x4 |[K:bass] x8 | x4[K:treble] x4 | x8 || %45
[M:2/4] x4 ||[M:4/4][K:bass] x4[K:treble] x4 |[K:bass] x8 | x8 | x8 | x8 | x4[K:treble] x4 | %52
!8va(! x6!8va)! x2 | x8 | x8 | x8 | x8 | x8 | x8 |[K:bass] x8 | x8 | x8 | x8 | x8 | x8 | x8 | x8 | %67
 x8 | x8 | x8 | x8 | x8 | x8 |{C,,-C,-} [C,,C,]4- [C,,C,]2 z2 | x8 | %75
 x2 !///-![B,E] G !///-![B,E]2 G2 | x8 | x8 | x8 | x8 | x8 | x8 | x8 | x4[K:treble] x4 | x8 | %85
[K:bass] x8 | x8 | x8 | x8 | x8 | x8 | x8 | x8 |[K:treble] x8 |] %94

